X: 1259
T: The Green Branch
M:C|
L:1/8
R:Reel
B:O'Neill's 1259
N:Collected by Delaney
Z:Transcribed by Trish O'Neil
K:G
ge \
|: dGBG dGGB | dGBG AGE2 | dGBG defg |1 afdfg2fe :|2 af (3defg2fe ||
| dggf gbag | fdef gfef | dggf gbag | fe^de fee2 |
| dggf gbag | fdef gedB | c2cA BAGB | dfga bgg2 |]


